svgs/thin/piano-keyboard.svg

<svg xmlns="http://www.w3.org/2000/svg" viewBox="0 0 576 512"><!-- Font Awesome Pro 6.0.0-alpha2 by @fontawesome - https://fontawesome.com License - https://fontawesome.com/license (Commercial License) --><path d="M512 64H64C28.801 64 0 92.801 0 128V384C0 419.199 28.801 448 64 448H512C547.201 448 576 419.199 576 384V128C576 92.801 547.201 64 512 64ZM16 128C16 101.533 37.533 80 64 80H512C538.467 80 560 101.533 560 128V208H16V128ZM136 224H184V312C184 316.406 180.406 320 176 320H144C139.594 320 136 316.406 136 312V224ZM176 336C189.219 336 200 325.234 200 312V224H248V312C248 325.234 258.781 336 272 336H280V432H168V336H176ZM272 320C267.594 320 264 316.406 264 312V224H312V312C312 316.406 308.406 320 304 320H272ZM296 336H304C317.219 336 328 325.234 328 312V224H376V312C376 325.234 386.781 336 400 336H408V432H296V336ZM400 320C395.594 320 392 316.406 392 312V224H440V312C440 316.406 436.406 320 432 320H400ZM16 384V224H120V312C120 325.234 130.781 336 144 336H152V432H64C37.533 432 16 410.467 16 384ZM560 384C560 410.467 538.467 432 512 432H424V336H432C445.219 336 456 325.234 456 312V224H560V384Z"/></svg>

<svg xmlns="http://www.w3.org/2000/svg" viewBox="0 0 576 512"><!--! Font Awesome Pro 6.0.0-alpha3 by @fontawesome - https://fontawesome.com License - https://fontawesome.com/license (Commercial License) --><path d="M512 64H64C28.8 64 0 92.8 0 128v256c0 35.2 28.8 64 64 64h448c35.2 0 64-28.8 64-64V128C576 92.8 547.2 64 512 64zM16 128c0-26.47 21.53-48 48-48h448c26.47 0 48 21.53 48 48v80h-544V128zM136 224h48v88C184 316.4 180.4 320 176 320h-32c-4.406 0-8-3.594-8-8V224zM176 336c13.22 0 24-10.77 24-24V224h48v88c0 13.23 10.78 24 24 24h8v96h-112v-96H176zM272 320c-4.406 0-8-3.594-8-8V224h48v88c0 4.406-3.594 8-8 8H272zM296 336h8c13.22 0 24-10.77 24-24V224h48v88c0 13.23 10.78 24 24 24h8v96h-112V336zM400 320c-4.406 0-8-3.594-8-8V224h48v88c0 4.406-3.594 8-8 8H400zM16 384V224h104v88c0 13.23 10.78 24 24 24h8v96H64C37.53 432 16 410.5 16 384zM560 384c0 26.47-21.53 48-48 48h-88v-96h8c13.22 0 24-10.77 24-24V224h104V384z"/></svg>
